!!!OTL: Sipan
!!!ARE: Asia, China,ÿShandong, Rizhao
!! III, 396
!!!SCT: C1576E
!!!YEM: Copyright 1995, estate of Helmut Schaffrath.
**kern
*ICvox
*Ivox
*M2/4
*k[f#c#g#d#]
*E:
{8ee
8ee
8cc#
8b
=1
8ee
8ee
8cc#
8b
=2
8ee
4ee
16cc#
16b
=3
2g#}
=4
{8ee
8ff#
8ee
8cc#
=5
4.b
8cc#
=6
2b}
=7
{8g#
4b
8cc#
=8
8ee
8ff#
16ee
16ff#
16cc#
16b
=9
2g#
=10
8b
8cc#
8b
8g#
=11
8.f#
16e
4f#}
=12
{8f#
16f#
16g#
8b
8b
=13
4g#
8g#
8f#
=14
4.e
8f#
=15
2e}
==
!!!AGN: Xiaodiao, Xiaolang diao
!!!AMT: simple duple
!!!AIN: vox
!!!EED: Helmut Schaffrath
!!!EEV: 1.0
*-
